images/small-team-2.svg

<?xml version="1.0"?>
<svg xmlns="http://www.w3.org/2000/svg" xmlns:xlink="http://www.w3.org/1999/xlink" width="476px" height="213px" viewBox="0 0 476 213" version="1.1">
    <!-- Generator: Sketch 56.3 (81716) - https://sketch.com -->
    <title>images/small-team-2</title>
    <desc>Created with Sketch.</desc>
    <g id="05---Small-Team-2" stroke="none" stroke-width="1" fill="none" fill-rule="evenodd">
        <g id="brown" transform="translate(5.000000, 67.000000)">
            <rect id="Rectangle-1" fill="#EFEFE7" fill-rule="evenodd" x="0" y="0" width="89" height="33" rx="16.5"/>
            <text stroke="none" font-family="Source Code Pro" font-size="12px" font-weight="700" fill="#979797" fill-opacity="1" text-anchor="middle" id="C6">
                <tspan fill="#808080" x="44.5" y="21" fill-opacity="1">4b078</tspan>
            </text>
        </g>
        <g id="Line-+-brown-2" transform="translate(94.000000, 67.000000)">
            <path id="Line" d="M9,16 L54,16 L54,17 L9,17 L9,21 L0,16.5 L9,12 L9,16 Z" fill="#8F8981" fill-rule="nonzero"/>
            <g id="brown" transform="translate(30.000000, 0.000000)">
                <rect id="Rectangle-1" fill="#EFEFE7" fill-rule="evenodd" x="0" y="0" width="89" height="33" rx="16.5"/>
                <text stroke="none" font-family="Source Code Pro" font-size="12px" font-weight="700" fill="#979797" fill-opacity="1" text-anchor="middle" id="C6">
                    <tspan fill="#808080" x="44.5" y="21" fill-opacity="1">1edee</tspan>
                </text>
            </g>
        </g>
        <g id="Line-+-brown-3" transform="translate(213.000000, 67.000000)">
            <path id="Line" d="M9,16 L54,16 L54,17 L9,17 L9,21 L0,16.5 L9,12 L9,16 Z" fill="#8F8981" fill-rule="nonzero"/>
            <g id="john" transform="translate(30.000000, 0.000000)">
                <rect id="Rectangle-1" fill="#FCC161" fill-rule="evenodd" x="0" y="0" width="89" height="33" rx="16.5"/>
                <text stroke="none" font-family="Source Code Pro" font-size="12px" font-weight="700" fill="#979797" fill-opacity="1" text-anchor="middle" id="C3'">
                    <tspan fill="#808080" x="44.5" y="21" fill-opacity="1">738ee</tspan>
                </text>
            </g>
        </g>
        <path id="Line" d="M341,83 L386,83 L386,84 L341,84 L341,88 L332,83.5 L341,79 L341,83 Z" fill="#8F8981" fill-rule="nonzero"/>
        <path id="Line-4" d="M337.080171,118.096173 L385.610282,82.8015461 L386.198454,83.6102822 L337.668343,118.904909 L340.021029,122.139853 L330.095632,123.794086 L334.727484,114.861228 L337.080171,118.096173 Z" fill="#8F8981" fill-rule="nonzero"/>
        <g id="john" transform="translate(362.000000, 67.000000)">
            <rect id="Rectangle-1" fill="#FCC161" fill-rule="evenodd" x="0" y="0" width="89" height="33" rx="16.5"/>
            <text stroke="none" font-family="Source Code Pro" font-size="12px" font-weight="700" fill="#979797" fill-opacity="1" text-anchor="middle" id="C3'">
                <tspan fill="#808080" x="44.5" y="21" fill-opacity="1">72bbc</tspan>
            </text>
        </g>
        <path id="Line-3" d="M215.934939,98.6499022 L267.190439,131.347377 L266.652623,132.190439 L215.397123,99.4929646 L213.24586,102.865214 L208.078469,94.2310922 L218.086201,95.2776524 L215.934939,98.6499022 Z" fill="#8F8981" fill-rule="nonzero"/>
        <g id="jessica" transform="translate(243.000000, 115.000000)">
            <rect id="Rectangle-1" fill="#B8E986" fill-rule="evenodd" x="0" y="0" width="89" height="33" rx="16.5"/>
            <text stroke="none" font-family="Source Code Pro" font-size="12px" font-weight="700" fill="#979797" fill-opacity="1" text-anchor="middle" id="C3'">
                <tspan fill="#808080" x="44.5" y="21" fill-opacity="1">fbff5</tspan>
            </text>
        </g>
        <g id="Line-2-+-ref" transform="translate(229.000000, 148.000000)">
            <path id="Line-2" d="M58,9 L58,32 L57,32 L57,9 L53,9 L57.5,0 L62,9 L58,9 Z" fill="#8F8981" fill-rule="nonzero"/>
            <g id="ref" transform="translate(0.000000, 22.000000)">
                <rect id="Rectangle-2" fill="#F44D27" x="0" y="0" width="116" height="38"/>
                <text stroke="none" font-family="Source Code Pro" font-size="12px" font-weight="700" fill="#979797" fill-opacity="1" text-anchor="middle" id="master">
                    <tspan fill="#f0f0f0" x="58" y="21.5151515" fill-opacity="1">origin/master</tspan>
                </text>
            </g>
        </g>
        <g id="Line-2-+-ref-2" transform="translate(348.000000, 6.000000)">
            <path id="Line-2" d="M57,52 L57,9 L58,9 L58,52 L62,52 L57.5,61 L53,52 L57,52 Z" fill="#8F8981" fill-rule="nonzero"/>
            <g id="ref">
                <rect id="Rectangle-2" fill="#F44D27" x="0" y="0" width="116" height="38"/>
                <text stroke="none" font-family="Source Code Pro" font-size="12px" font-weight="700" fill="#979797" fill-opacity="1" text-anchor="middle" id="master">
                    <tspan fill="#f0f0f0" x="58" y="21.5151515" fill-opacity="1">master</tspan>
                </text>
            </g>
        </g>
    </g>
</svg>

<?xml version="1.0" encoding="UTF-8"?>
<svg id="svg18993" version="1.1" viewBox="0 0 454 210" xmlns="http://www.w3.org/2000/svg" xmlns:cc="http://creativecommons.org/ns#" xmlns:dc="http://purl.org/dc/elements/1.1/" xmlns:rdf="http://www.w3.org/1999/02/22-rdf-syntax-ns#">
 <metadata id="metadata18999">
  <rdf:RDF>
   <cc:Work rdf:about="">
    <dc:format>image/svg+xml</dc:format>
    <dc:type rdf:resource="http://purl.org/dc/dcmitype/StillImage"/>
    <dc:title>images/small-team-2</dc:title>
   </cc:Work>
  </rdf:RDF>
 </metadata>
 <!-- Generator: Sketch 56.3 (81716) - https://sketch.com -->
 <title id="title18927">images/small-team-2</title>
 <desc id="desc18929">Created with Sketch.</desc>
 <g id="g19136" transform="translate(-1,-2)">
  <g id="brown" transform="translate(5,67)" style="fill-rule:evenodd;fill:none">
   <rect id="Rectangle-1" width="89" height="33" rx="16.5" ry="16.5" style="fill-rule:evenodd;fill:#efefe7"/>
   <text id="C6" font-size="12px" font-weight="700" style="fill:#979797;font-family:'Source Code Pro';font-size:12px;font-weight:700;text-anchor:middle"><tspan id="tspan18932" x="44.5" y="21" style="fill:gray">4b078</tspan></text>
  </g>
  <g id="Line-+-brown-2" transform="translate(94,67)" style="fill-rule:evenodd;fill:none">
   <path id="Line" d="m9 16h45v1h-45v4l-9-4.5 9-4.5z" style="fill-rule:nonzero;fill:#8f8981"/>
   <g id="g18943" transform="translate(30)">
    <rect id="rect18937" width="89" height="33" rx="16.5" ry="16.5" style="fill-rule:evenodd;fill:#efefe7"/>
    <text id="text18941" font-size="12px" font-weight="700" style="fill:#979797;font-family:'Source Code Pro';font-size:12px;font-weight:700;text-anchor:middle"><tspan id="tspan18939" x="44.5" y="21" style="fill:gray">1edee</tspan></text>
   </g>
  </g>
  <g id="Line-+-brown-3" transform="translate(213,67)" style="fill-rule:evenodd;fill:none">
   <path id="path18946" d="m9 16h45v1h-45v4l-9-4.5 9-4.5z" style="fill-rule:nonzero;fill:#8f8981"/>
   <g id="john" transform="translate(30)">
    <rect id="rect18948" width="89" height="33" rx="16.5" ry="16.5" style="fill-rule:evenodd;fill:#fcc161"/>
    <text id="C3'" font-size="12px" font-weight="700" style="fill:#979797;font-family:'Source Code Pro';font-size:12px;font-weight:700;text-anchor:middle"><tspan id="tspan18950" x="44.5" y="21" style="fill:gray">738ee</tspan></text>
   </g>
  </g>
  <g id="g19093">
   <path id="path18955" d="m341 83h45v1h-45v4l-9-4.5 9-4.5z" style="fill:#8f8981"/>
   <path id="Line-4" d="m337.08 118.1 48.53-35.295.58817.80874-48.53 35.295 2.3527 3.2349-9.9254 1.6542 4.6318-8.9329z" style="fill:#8f8981"/>
   <g id="g18964" transform="translate(362,67)" style="fill-rule:evenodd;fill:none">
    <rect id="rect18958" width="89" height="33" rx="16.5" ry="16.5" style="fill-rule:evenodd;fill:#fcc161"/>
    <text id="text18962" font-size="12px" font-weight="700" style="fill:#979797;font-family:'Source Code Pro';font-size:12px;font-weight:700;text-anchor:middle"><tspan id="tspan18960" x="44.5" y="21" style="fill:gray">72bbc</tspan></text>
   </g>
  </g>
  <g id="g19065">
   <path id="Line-3" d="m215.93 98.65 51.256 32.697-.53782.84306-51.256-32.697-2.1513 3.3722-5.1674-8.6341 10.008 1.0466z" style="fill:#8f8981"/>
   <g id="jessica" transform="translate(243,115)" style="fill-rule:evenodd;fill:none">
    <rect id="rect18967" width="89" height="33" rx="16.5" ry="16.5" style="fill-rule:evenodd;fill:#b8e986"/>
    <text id="text18971" font-size="12px" font-weight="700" style="fill:#979797;font-family:'Source Code Pro';font-size:12px;font-weight:700;text-anchor:middle"><tspan id="tspan18969" x="44.5" y="21" style="fill:gray">fbff5</tspan></text>
   </g>
  </g>
  <g id="g19058" transform="translate(.52766)">
   <path id="Line-2" transform="translate(229.47 148)" d="m58 9v23h-1v-23h-4l4.5-9 4.5 9z" style="fill:#8f8981"/>
   <g id="g19051">
    <rect id="Rectangle-2" transform="matrix(.86207 0 0 1 236.97 170)" width="116" height="38" style="fill-rule:evenodd;fill:#f44d27"/>
    <text id="master" transform="translate(229,170)" font-size="12px" font-weight="700" style="fill-rule:evenodd;fill:#979797;font-family:'Source Code Pro';font-size:12px;font-weight:700;text-anchor:middle"><tspan id="tspan18976" x="58" y="21.515152" style="fill:#f0f0f0">origin/master</tspan></text>
   </g>
  </g>
  <g id="g19085" transform="translate(1)">
   <path id="path18981" transform="translate(348,6)" d="m57 52v-43h1v43h4l-4.5 9-4.5-9z" style="fill:#8f8981"/>
   <g id="g19078" transform="translate(-.40034)">
    <rect id="rect18983" transform="matrix(.76724 0 0 1 361.4 6)" width="116" height="38" style="fill-rule:evenodd;fill:#f44d27"/>
    <text id="text18987" transform="translate(348 7.3008)" font-size="12px" font-weight="700" style="fill-rule:evenodd;fill:#979797;font-family:'Source Code Pro';font-size:12px;font-weight:700;text-anchor:middle"><tspan id="tspan18985" x="58" y="21.515152" style="fill:#f0f0f0">master</tspan></text>
   </g>
  </g>
 </g>
</svg>
